flaticon/constructions/ladder-2.svg

<svg xmlns="http://www.w3.org/2000/svg" width="32" height="32" viewBox="0 0 24 24">
    <path d="M 20 6.800781 C 20.238281 6.800781 20.398438 6.640625 20.398438 6.398438 L 20.398438 3.199219 C 20.398438 2.960938 20.238281 2.800781 20 2.800781 L 18.800781 2.800781 L 18.800781 0.398438 C 18.800781 0.160156 18.640625 0 18.398438 0 L 15.199219 0 C 14.960938 0 14.800781 0.160156 14.800781 0.398438 L 14.800781 2.800781 L 9.199219 2.800781 L 9.199219 0.398438 C 9.199219 0.160156 9.039062 0 8.800781 0 L 5.601562 0 C 5.359375 0 5.199219 0.160156 5.199219 0.398438 L 5.199219 2.800781 L 4 2.800781 C 3.761719 2.800781 3.601562 2.960938 3.601562 3.199219 L 3.601562 6.398438 C 3.601562 6.640625 3.761719 6.800781 4 6.800781 L 5.199219 6.800781 L 5.199219 9.601562 L 4 9.601562 C 3.761719 9.601562 3.601562 9.761719 3.601562 10 L 3.601562 13.199219 C 3.601562 13.441406 3.761719 13.601562 4 13.601562 L 5.199219 13.601562 L 5.199219 16.398438 L 4 16.398438 C 3.761719 16.398438 3.601562 16.558594 3.601562 16.800781 L 3.601562 20 C 3.601562 20.238281 3.761719 20.398438 4 20.398438 L 5.199219 20.398438 L 5.199219 23.601562 C 5.199219 23.839844 5.359375 24 5.601562 24 L 8.800781 24 C 9.039062 24 9.199219 23.839844 9.199219 23.601562 L 9.199219 20.398438 L 14.800781 20.398438 L 14.800781 23.601562 C 14.800781 23.839844 14.960938 24 15.199219 24 L 18.398438 24 C 18.640625 24 18.800781 23.839844 18.800781 23.601562 L 18.800781 20.398438 L 20 20.398438 C 20.238281 20.398438 20.398438 20.238281 20.398438 20 L 20.398438 16.800781 C 20.398438 16.558594 20.238281 16.398438 20 16.398438 L 18.800781 16.398438 L 18.800781 13.601562 L 20 13.601562 C 20.238281 13.601562 20.398438 13.441406 20.398438 13.199219 L 20.398438 10 C 20.398438 9.761719 20.238281 9.601562 20 9.601562 L 18.800781 9.601562 L 18.800781 6.800781 Z M 15.601562 0.800781 L 18 0.800781 L 18 2.800781 L 15.601562 2.800781 Z M 6 0.800781 L 8.398438 0.800781 L 8.398438 2.800781 L 6 2.800781 Z M 4.398438 3.601562 L 19.601562 3.601562 L 19.601562 6 L 4.398438 6 Z M 9.199219 9.601562 L 9.199219 6.800781 L 14.800781 6.800781 L 14.800781 9.601562 Z M 6 6.800781 L 8.398438 6.800781 L 8.398438 9.601562 L 6 9.601562 Z M 6 13.601562 L 8.398438 13.601562 L 8.398438 16.398438 L 6 16.398438 Z M 14.800781 13.601562 L 14.800781 16.398438 L 9.199219 16.398438 L 9.199219 13.601562 Z M 8.398438 23.199219 L 6 23.199219 L 6 20.398438 L 8.398438 20.398438 Z M 18 23.199219 L 15.601562 23.199219 L 15.601562 20.398438 L 18 20.398438 Z M 19.601562 19.601562 L 4.398438 19.601562 L 4.398438 17.199219 L 19.601562 17.199219 Z M 18 16.398438 L 15.601562 16.398438 L 15.601562 13.601562 L 18 13.601562 Z M 19.601562 12.800781 L 4.398438 12.800781 L 4.398438 10.398438 L 19.601562 10.398438 Z M 18 9.601562 L 15.601562 9.601562 L 15.601562 6.800781 L 18 6.800781 Z M 18 9.601562"/>
    <path d="M7.199219 11.199219C6.960938 11.199219 6.800781 11.359375 6.800781 11.601562 6.800781 11.839844 6.960938 12 7.199219 12 7.441406 12 7.601562 11.839844 7.601562 11.601562 7.601562 11.398438 7.441406 11.199219 7.199219 11.199219zM7.199219 5.199219C7.441406 5.199219 7.601562 5.039062 7.601562 4.800781 7.601562 4.601562 7.441406 4.398438 7.199219 4.398438 6.960938 4.398438 6.800781 4.558594 6.800781 4.800781 6.800781 5.039062 6.960938 5.199219 7.199219 5.199219zM16.800781 5.199219C17.039062 5.199219 17.199219 5.039062 17.199219 4.800781 17.199219 4.601562 17.039062 4.398438 16.800781 4.398438 16.558594 4.398438 16.398438 4.558594 16.398438 4.800781 16.398438 5.039062 16.558594 5.199219 16.800781 5.199219zM16.800781 11.199219C16.558594 11.199219 16.398438 11.359375 16.398438 11.601562 16.398438 11.839844 16.558594 12 16.800781 12 17.039062 12 17.199219 11.839844 17.199219 11.601562 17.199219 11.398438 17.039062 11.199219 16.800781 11.199219zM7.199219 18C6.960938 18 6.800781 18.160156 6.800781 18.398438 6.800781 18.640625 6.960938 18.800781 7.199219 18.800781 7.441406 18.800781 7.601562 18.640625 7.601562 18.398438 7.601562 18.199219 7.441406 18 7.199219 18zM16.800781 18C16.558594 18 16.398438 18.160156 16.398438 18.398438 16.398438 18.640625 16.558594 18.800781 16.800781 18.800781 17.039062 18.800781 17.199219 18.640625 17.199219 18.398438 17.199219 18.199219 17.039062 18 16.800781 18zM16.800781 18"/>
</svg>

<svg xmlns="http://www.w3.org/2000/svg" width="32" height="32" viewBox="0 0 24 24">
    <path d="M20 6.8c.238 0 .398-.16.398-.402V3.2c0-.238-.16-.398-.398-.398h-1.2V.398C18.8.16 18.64 0 18.399 0H15.2c-.238 0-.398.16-.398.398v2.403H9.199V.398C9.2.16 9.04 0 8.801 0H5.6C5.36 0 5.2.16 5.2.398v2.403H4c-.238 0-.398.16-.398.398v3.2c0 .242.16.402.398.402h1.2v2.8H4c-.238 0-.398.16-.398.399v3.2c0 .241.16.402.398.402h1.2v2.796H4c-.238 0-.398.16-.398.403V20c0 .238.16.398.398.398h1.2v3.204c0 .238.16.398.402.398H8.8c.238 0 .398-.16.398-.398v-3.204h5.602v3.204c0 .238.16.398.398.398h3.2c.242 0 .402-.16.402-.398v-3.204H20c.238 0 .398-.16.398-.398v-3.2c0-.241-.16-.402-.398-.402h-1.2v-2.796H20c.238 0 .398-.16.398-.403V10c0-.238-.16-.398-.398-.398h-1.2V6.8zm-4.398-6H18v2h-2.398zM6 .8h2.398v2H6zM4.398 3.603h15.204V6H4.398zm4.801 6V6.8h5.602v2.8zM6 6.8h2.398v2.8H6zm0 6.8h2.398v2.797H6zm8.8 0v2.797H9.2v-2.796zM8.399 23.2H6v-2.8h2.398zm9.602 0h-2.398v-2.8H18zm1.602-3.597H4.398v-2.403h15.204zM18 16.398h-2.398v-2.796H18zm1.602-3.597H4.398v-2.403h15.204zM18 9.6h-2.398v-2.8H18zm0 0"/>
    <path d="M7.2 11.2c-.24 0-.4.16-.4.402 0 .238.16.398.4.398.241 0 .402-.16.402-.398a.401.401 0 0 0-.403-.403zm0 0M7.2 5.2c.241 0 .402-.16.402-.4 0-.198-.16-.402-.403-.402-.238 0-.398.16-.398.403 0 .238.16.398.398.398zm0 0M16.8 5.2c.24 0 .4-.16.4-.4 0-.198-.16-.402-.4-.402-.241 0-.402.16-.402.403 0 .238.16.398.403.398zm0 0M16.8 11.2c-.241 0-.402.16-.402.402 0 .238.16.398.403.398.238 0 .398-.16.398-.398a.4.4 0 0 0-.398-.403zm0 0M7.2 18c-.24 0-.4.16-.4.398 0 .243.16.403.4.403.241 0 .402-.16.402-.403A.4.4 0 0 0 7.199 18zm0 0M16.8 18c-.241 0-.402.16-.402.398 0 .243.16.403.403.403.238 0 .398-.16.398-.403a.4.4 0 0 0-.398-.398zm0 0"/>
</svg>
